static/dist/images/icons/swarm.svg

<svg xmlns="http://www.w3.org/2000/svg" viewBox="0 0 20 20"><path d="M10.286 18.821a23.855 23.855 0 0 1-3.677-.923 58.46 58.46 0 0 1-1.007-.37.558.558 0 0 1-.317-.71c.086-.225.379-.949.399-.994.4-.92 1-2.153 1.795-3.379a9.16 9.16 0 0 0 2.807 6.376zm-.113-11.794C7.382 1.338 1.183 1.541.205 4.084c-.751 1.952 2.535 6.602 10.097 3.244l.004-.002a4.237 4.237 0 0 1-.133-.299zm1.387-.222l.002-.001c4.271-1.897 3.674-5.191 2.569-5.614-1.487-.569-4.19 1.624-2.647 5.447.015.027.066.14.076.168zm7.853 4.165A5.567 5.567 0 0 0 16.2 7.986a1.243 1.243 0 0 0-.423-.073c-.717 0-1.407.595-1.472 1.338-.109 1.239.137 2.501.68 3.718.535 1.199 1.294 2.213 2.27 2.957.254.194.565.285.875.285.559 0 1.117-.296 1.339-.826a5.542 5.542 0 0 0-.056-4.415zm-3.241 6.369c-1.195-.912-2.142-2.139-2.815-3.646-.682-1.529-.961-3.075-.827-4.596.037-.423.161-.831.36-1.204l-.114.028a5.86 5.86 0 0 0-1.778.784c-.784.514-1.475 1.277-1.772 2.177-.08.243-.141.51-.161.765a7.54 7.54 0 0 0 .636 3.67 7.562 7.562 0 0 0 2.213 2.853c.566.447 1.586.73 2.42.73.783 0 1.556-.233 2.25-.585.217-.11.695-.408.726-.429a3.17 3.17 0 0 1-1.138-.547z"/></svg>

<?xml version="1.0" encoding="utf-8"?>
<!-- Generator: Adobe Illustrator 18.1.1, SVG Export Plug-In . SVG Version: 6.00 Build 0)  -->
<!DOCTYPE svg PUBLIC "-//W3C//DTD SVG 1.1//EN" "http://www.w3.org/Graphics/SVG/1.1/DTD/svg11.dtd">
<svg version="1.1" id="Swarm" xmlns="http://www.w3.org/2000/svg" xmlns:xlink="http://www.w3.org/1999/xlink" x="0px" y="0px"
	 viewBox="0 0 20 20" enable-background="new 0 0 20 20" xml:space="preserve">
<path d="M10.286,18.821c-1.429-0.232-2.733-0.607-3.677-0.923c-0.046-0.015-0.781-0.282-1.007-0.37
	c-0.278-0.107-0.423-0.431-0.317-0.71c0.086-0.225,0.379-0.949,0.399-0.994c0.4-0.92,1-2.153,1.795-3.379
	c0.029,1.203,0.297,2.399,0.791,3.506C8.75,17.028,9.439,18.007,10.286,18.821z M10.173,7.027c-2.791-5.689-8.99-5.486-9.968-2.943
	c-0.751,1.952,2.535,6.602,10.097,3.244c0.002-0.001,0.002-0.001,0.004-0.002C10.28,7.279,10.192,7.079,10.173,7.027z M11.56,6.805
	c0.001,0,0.002-0.001,0.002-0.001c4.271-1.897,3.674-5.191,2.569-5.614c-1.487-0.569-4.19,1.624-2.647,5.447
	C11.499,6.664,11.55,6.777,11.56,6.805z M19.413,10.97C18.767,9.52,17.58,8.481,16.2,7.986c-0.139-0.05-0.281-0.073-0.423-0.073
	c-0.717,0-1.407,0.595-1.472,1.338c-0.109,1.239,0.137,2.501,0.68,3.718c0.535,1.199,1.294,2.213,2.27,2.957
	c0.254,0.194,0.565,0.285,0.875,0.285c0.559,0,1.117-0.296,1.339-0.826C20.04,14.023,20.066,12.432,19.413,10.97z M16.172,17.339
	c-1.195-0.912-2.142-2.139-2.815-3.646c-0.682-1.529-0.961-3.075-0.827-4.596c0.037-0.423,0.161-0.831,0.36-1.204
	c-0.035,0.009-0.111,0.027-0.114,0.028c-0.628,0.157-1.237,0.429-1.778,0.784c-0.784,0.514-1.475,1.277-1.772,2.177
	c-0.08,0.243-0.141,0.51-0.161,0.765c-0.095,1.218,0.103,2.476,0.636,3.67c0.516,1.155,1.285,2.118,2.213,2.853
	C12.48,18.617,13.5,18.9,14.334,18.9c0.783,0,1.556-0.233,2.25-0.585c0.217-0.11,0.695-0.408,0.726-0.429
	C16.895,17.78,16.506,17.594,16.172,17.339z"/>
</svg>
